packages/crayons-icon/icons/at-the-rate.svg

<?xml version="1.0" encoding="UTF-8"?>
<svg width="16px" height="16px" viewBox="0 0 16 16" version="1.1" xmlns="http://www.w3.org/2000/svg" xmlns:xlink="http://www.w3.org/1999/xlink">
    <!-- Generator: Sketch 52.6 (67491) - http://www.bohemiancoding.com/sketch -->
    <title>icon/at-the-rate</title>
    <desc>Created with Sketch.</desc>
    <g id="Icons-✅" stroke="none" stroke-width="1" fill="none" fill-rule="evenodd">
        <g id="Icons" transform="translate(-736.000000, -2652.000000)" fill="currentColor">
            <g id="icon/at-the-rate" transform="translate(736.000000, 2652.000000)">
                <g id="at-the-rate">
                    <path d="M8.16,-9.01842332e-17 C5.70372366,-0.00131523678 3.37654129,1.09987516 1.82,3 C0.302007162,4.82266057 -0.311693365,7.23336444 0.15,9.56 C0.773462104,12.8046393 3.3433406,15.3227218 6.6,15.88 C7.06259522,15.9582543 7.53083534,15.9983892 8,16 C9.40322236,16.0035882 10.7827052,15.6380253 12,14.94 C12.172076,14.8463789 12.2970487,14.6849366 12.3445603,14.4948901 C12.392072,14.3048435 12.3577748,14.1035838 12.25,13.94 C12.1586526,13.765549 11.9971207,13.6384394 11.8060802,13.5906793 C11.6150397,13.5429192 11.4126952,13.5790597 11.25,13.69 C9.41423628,14.7263128 7.19466085,14.8263514 5.27311436,13.9593843 C3.35156787,13.0924173 1.95781184,11.362109 1.52,9.3 C1.1299407,7.36806527 1.6375203,5.36349366 2.9,3.85 C4.19762907,2.28640068 6.12812387,1.38721584 8.16,1.4 C11.591272,1.51184155 14.3753208,4.21362455 14.59,7.64 C14.6172836,8.17207855 14.583733,8.70553256 14.49,9.23 C14.3716064,9.79394237 13.8857238,10.2057073 13.31,10.23 C12.9698745,10.2594948 12.6338327,10.1389581 12.39,9.9 C12.1377291,9.66925352 11.995858,9.34185871 12,9 L12,5.09 C12,4.70340068 11.6865993,4.39 11.3,4.39 C10.950167,4.38814198 10.6560078,4.65202013 10.62,5 C9.39548894,3.91981657 7.6373457,3.69236099 6.17825845,4.4253603 C4.7191712,5.15835961 3.85209746,6.70464122 3.98769889,8.33185843 C4.12330033,9.95907563 5.2343507,11.3405136 6.79463663,11.8218984 C8.35492256,12.3032833 10.0511677,11.787962 11.08,10.52 C11.1831207,10.6736283 11.3039505,10.8145964 11.44,10.94 C12.1527482,11.5903223 13.1609056,11.8055192 14.0770653,11.5028963 C14.9932249,11.2002734 15.6748459,10.4269145 15.86,9.48 C15.9829792,8.85123612 16.0299826,8.20997574 16,7.57 C15.7332151,3.40089531 12.3358916,0.120571451 8.16,-9.01842332e-17 Z M8,10.6 C6.56405965,10.6 5.4,9.43594035 5.4,8 C5.4,6.56405965 6.56405965,5.4 8,5.4 C9.43594035,5.4 10.6,6.56405965 10.6,8 C10.6,8.68956287 10.3260722,9.35088305 9.83847763,9.83847763 C9.35088305,10.3260722 8.68956287,10.6 8,10.6 Z" id="Shape"></path>
                </g>
            </g>
        </g>
    </g>
</svg>

<svg viewBox="0 0 16 16"><path d="M8.16 0a8.19 8.19 0 0 0-6.34 3A7.86 7.86 0 0 0 .15 9.56a7.93 7.93 0 0 0 6.45 6.32c.463.078.93.118 1.4.12a8 8 0 0 0 4-1.06.7.7 0 0 0 .25-1 .69.69 0 0 0-1-.25A6.62 6.62 0 0 1 1.52 9.3 6.5 6.5 0 0 1 2.9 3.85 6.78 6.78 0 0 1 8.16 1.4a6.66 6.66 0 0 1 6.43 6.24 7 7 0 0 1-.1 1.59 1.26 1.26 0 0 1-1.18 1 1.17 1.17 0 0 1-.92-.33A1.2 1.2 0 0 1 12 9V5.09a.7.7 0 0 0-.7-.7.68.68 0 0 0-.68.61 4 4 0 1 0 .46 5.52c.103.154.224.295.36.42a2.67 2.67 0 0 0 4.42-1.46A8 8 0 0 0 16 7.57 8.09 8.09 0 0 0 8.16 0zM8 10.6a2.6 2.6 0 1 1 0-5.2 2.6 2.6 0 0 1 0 5.2z" fill="currentColor" fill-rule="evenodd"/></svg>
